!!!!SEGMENT: pl-cz--iii-206--001-003_engel-jan--sinfonia-ex-f-presto.krn
!!!cenid: 17xx:887
!!!COM: Engel, Jan
!!!COM-rismID: pe30009138
!!!CDT: <1772->1788
!!!CNT:
!!!OPR: Sinfonia ex F
!!!OTL: Presto
!!!OMV: 003
!!!PDT: 1787
!!!AGN: Secular
!!!YEC: Copyright 2022 Narodowy Instytut Fryderyka Chopina (https://polishscores.org)
!!!YEM: License CC-BY-4.0 (https://creativecommons.org/licenses/by/4.0)
!!!SMS-siglum: PL-CZ
!!!SMS-shelfmark: III-206
!!!SMS-shelfwork: 001-003 M
!!!SMS-variant:
!!!SMS-altvar:
!!!NIFC-rismSourceID: 300000297
!!!NIFC-rismChildID: 300000297
!!!NIFC-islandoraID: pl-cz:36525
!!!URL-pdf-islandora: https://repozytorium.nifc.pl/islandora/object/pl-cz%3A36525/datastream/PDF/view
!!!URL-scan: https://polish.musicsources.pl/pl/lokalizacje/galeria/rekopisy/6870/1 @EN{Scan on Polish Music Sources Website} @PL{Skany w portalu Dziedzictwo Muzyki Polskiej w otwartym dostępie}
!!!IIIF:
!!!ONB-nifc: UWAGA: części Sinfonii: Presto, Andante, Presto
!!!AIN: 1 cbass 2 cor 1 fagot 2 oboe 1 viola 2 violn
!!!key: F
**kern	**dynam	**kern	**kern	**dynam	**kern	**dynam	**kern	**kern	**kern	**kern	**kern	**dynam
*group	*group	*group3	*group3	*	*group3	*	*group2	*group2	*group1	*group1	*group1	*
*part9	*	*part8	*part7	*	*part6	*	*part5	*part4	*part3	*part2	*part1	*
*staff9	*	*staff8	*staff7	*	*staff6	*	*staff5	*staff4	*staff3	*staff2	*staff1	*
*I"Baſso.	*	*I"Alto Viola	*I"Violino 2do	*	*I"Violino Primo	*	*I"Corno 2do Ex F.	*I"Cornu 1mo Ex F.	*I"Fagotto Obli	*I"Obe 2do	*I"Oboe Primo	*
*I'b	*	*I'a-vla	*I'vl 2	*	*I'vl 1	*	*I'cor 2 in F	*I'cor 1 in F	*I'fag	*I'ob 2	*I'ob 1	*
*Icbass	*	*Iviola	*Ivioln	*	*Ivioln	*	*Icor	*Icor	*Ifagot	*Ioboe	*Ioboe	*
*ICstr	*	*ICstr	*ICstr	*	*ICstr	*	*ICbrass	*ICbrass	*ICww	*ICww	*ICww	*
*clefF4	*	*clefC3	*clefG2	*	*clefG2	*	*clefG2	*clefG2	*clefF4	*clefG2	*clefG2	*
*	*	*	*	*	*	*	*ITrd4c7	*ITrd4c7	*	*	*	*
*k[b-]	*	*k[b-]	*k[b-]	*	*k[b-]	*	*k[b-]	*k[b-]	*k[b-]	*k[b-]	*k[b-]	*
*F:	*	*F:	*F:	*	*F:	*	*F:	*F:	*F:	*F:	*F:	*
*M2/4	*	*M2/4	*M2/4	*	*M2/4	*	*M2/4	*M2/4	*M2/4	*M2/4	*M2/4	*
*met(2)	*	*met(2)	*met(2)	*	*met(2)	*	*met(2)	*met(2)	*met(2)	*met(2)	*met(2)	*
*>[A,A,B,B,C,C,D,D,E,E,F]	*	*>[A,A,B,B,C,C,D,D,E,E,F]	*>[A,A,B,B,C,C,D,D,E,E,F]	*	*>[A,A,B,B,C,C,D,D,E,E,F]	*	*>[A,A,B,B,C,C,D,D,E,E,F]	*>[A,A,B,B,C,C,D,D,E,E,F]	*>[A,A,B,B,C,C,D,D,E,E,F]	*>[A,A,B,B,C,C,D,D,E,E,F]	*>[A,A,B,B,C,C,D,D,E,E,F]	*
=1	=1	=1	=1	=1	=1	=1	=1	=1	=1	=1	=1	=1
*>A	*	*>A	*>A	*	*>A	*	*>A	*>A	*>A	*>A	*>A	*
*	*	*	*^	*	*^	*	*	*	*	*	*	*
!LO:TX:a:t=P:problem=oznaczenie metryczne 2 z przekreśleniem	!	!LO:TX:a:t=P:problem=oznaczenie metryczne 2 z przekreśleniem	!LO:TX:a:t=P:problem=oznaczenie metryczne 2 z przekreśleniem	!	!	!LO:TX:a:t=P:problem=oznaczenie metryczne 2 z przekreśleniem	!	!	!LO:TX:a:t=P:problem=oznaczenie metryczne 2 z przekreśleniem	!LO:TX:a:t=P:problem=oznaczenie metryczne 2 z przekreśleniem	!LO:TX:a:t=P:problem=oznaczenie metryczne 2 z przekreśleniem	!LO:TX:a:t=P:problem=oznaczenie metryczne 2 z przekreśleniem	!LO:TX:a:t=P:problem=oznaczenie metryczne 2 z przekreśleniem	!
!	!	!LO:TX:a:i:t=Preſto	!	!	!	!	!	!	!	!	!	!	!	!
!LO:TX:a:t=Presto	!	!LO:TX:a:t=P:problem=przy kluczu błędnie c-	!LO:TX:a:i:t=Preſto	!	!	!LO:TX:a:i:t=Preſto	!	!	!LO:TX:a:i:t=Preſto.	!LO:TX:a:i:t=Preſto.	!LO:TX:a:i:t=Presto	!LO:TX:a:i:t=Preſto	!LO:TX:a:i:t=Preſto	!
8F\L	.	8f\L	8ff/L	8a\L	.	8ff/L	8a\L	.	8A/L	8f\L	8F\L	8ff\L	8ff\L	.
8A\	.	8a\	8ff/J	8a\J	.	8ff/J	8a\J	.	8A/J	8f\J	8A\	8ff\J	8ff\J	.
8G\	.	8g\	4ff/	4a\	.	4ff/	4a\	.	4A/	4f\	8G\	4ff\	4ff\	.
8F\J	.	8f\J	.	.	.	.	.	.	.	.	8F\J	.	.	.
=2	=2	=2	=2	=2	=2	=2	=2	=2	=2	=2	=2	=2	=2	=2
8E\L	.	8e\L	4.gg/	4.cc\	.	4.gg/	4.cc\	.	4.c/	4.g\	8E\L	4.ee\	4.gg\	.
8C\	.	8c\	.	.	.	.	.	.	.	.	8C\	.	.	.
8D\	.	8d\	.	.	.	.	.	.	.	.	8D\	.	.	.
8E\J	.	8e\J	8bb-\	8ryy	.	8bb-\	8ryy	.	8g\	8b-\	8E\J	8gg\	8bb-\	.
*	*	*	*v	*v	*	*	*	*	*	*	*	*	*	*
*	*	*	*	*	*v	*v	*	*	*	*	*	*	*
=3	=3	=3	=3	=3	=3	=3	=3	=3	=3	=3	=3	=3
.	.	.	.	.	8qqbb-/	.	.	.	.	.	.	.
!LO:TX:a:t=P:problem=mixed beam	!	!	!	!	!	!	!	!	!	!	!	!
!	!	!	!	!	!	!	!	!	!LO:TX:a:t=P:problem=mixed beam	!	!	!
8F\L	.	8f\L	8aa\L	.	8aa\L	.	8f\L	8a\L	8F\L	8ff\	8aa\L	.
8AA/	.	8c\	16gg\L	.	16gg\L	.	8A\J	8f\J	8AA/	4cc\	16gg\L	.
.	.	.	16ff\JJ	.	16ff\JJ	.	.	.	.	.	16ff\JJ	.
!	!	!	!	!	!	!	!	!	!	!	!LO:TX:a:t=P:problem=niejednoznaczny zapis ozdobnika [przyjęto mordent]&colon;global	!
.	.	.	8qqaa/	.	8qqaa/	.	.	.	.	.	.	.
8BB-/	.	8d\	4gg\	.	4gg\	.	4c/	4g\	8BB-/	.	4ggM\	.
8C/J	.	8e\J	.	.	.	.	.	.	8C/J	8b-\	.	.
=4	=4	=4	=4	=4	=4	=4	=4	=4	=4	=4	=4	=4
.	.	.	.	.	.	.	.	.	.	8qqb-/	.	.
4FF/	.	4c\	4ff\	.	4ff\	.	4A/	4f\	4FF/	4a/	4ff\	.
4r	.	4r	4r	.	4r	.	4r	4r	4r	4r	4r	.
=5	=5	=5	=5	=5	=5	=5	=5	=5	=5	=5	=5	=5
!LO:TX:a:t=1	!	!LO:TX:a:t=1	!	!	!	!LO:DY:a	!	!	!LO:TX:a:t=1	!LO:TX:a:t=1	!LO:TX:a:t=1	!
2r	.	2r	(>8cc\L	.	8ee\L	p	2r	2r	2r	2r	2r	.
.	.	.	8ee\	p	8gg\	.	.	.	.	.	.	.
.	.	.	8gg\	.	8ccc\	.	.	.	.	.	.	.
!	!	!	!	!	!	!LO:DY:a:t=for	!	!	!	!	!	!
.	.	.	8ccc\J)	.	8eee\J	f	.	.	.	.	.	.
=6	=6	=6	=6	=6	=6	=6	=6	=6	=6	=6	=6	=6
!	!	!	!	!LO:DY:a	!	!	!	!	!	!	!	!
8G\L	.	8bn\L	8dd\L	f	8ddd\L	.	8g\L	8g\L	8G\L	8dd\L	8ff\L	.
8G\J	.	8b\J	8dd\J	.	8ff\J	.	8g\J	8g\J	8G\J	8dd\J	8ff\J	.
4G\	.	4b\	4dd\	.	4ff\	.	4g\	4g\	4G\	4dd\	4ff\	.
=7	=7	=7	=7	=7	=7	=7	=7	=7	=7	=7	=7	=7
!LO:TX:a:t=1	!	!LO:TX:a:t=1	!	!LO:DY:a	!	!	!	!LO:TX:a:t=1	!LO:TX:a:t=1	!	!	!
2r	.	2r	(>8cc\L	p	8ee\L	.	2r	2r	2r	2r	2r	.
.	.	.	8ee\	.	8gg\	.	.	.	.	.	.	.
.	.	.	8gg\	.	8ccc\	.	.	.	.	.	.	.
.	.	.	8ccc\J)	.	8eee\J	.	.	.	.	.	.	.
=8	=8	=8	=8	=8	=8	=8	=8	=8	=8	=8	=8	=8
!	!	!	!	!LO:DY:a:t=for	!	!	!	!	!	!	!	!
8G\L	.	8bn\L	8dd\L	f	8ddd\L	.	8g\L	8g\L	8G\L	8dd\L	8ff\L	.
!	!	!	!	!	!	!LO:DY:a:t=for	!	!	!	!	!	!
8G\J	.	8b\J	8dd\J	.	8ff\J	f	8g\J	8g\J	8G\J	8dd\J	8ff\J	.
4G\	.	4b\	4dd\	.	4ff\	.	4g\	4g\	4G\	4dd\	4ff\	.
=9	=9	=9	=9	=9	=9	=9	=9	=9	=9	=9	=9	=9
8c\L	.	8cc\L	8dd\	.	8ee\L	.	8r	8r	8c\L	4cc\	8ee\L	.
8G\	.	8e\	4cc\	.	16dd\L	.	16g\LL	16g\LL	8E\	.	16dd\L	.
!	!	!	!	!	!	!	!	!LO:SIC:v:o=16a\JJ	!	!	!	!
.	.	.	.	.	16cc\JJ	.	16g\JJ	16dd	.	.	16cc\JJ	.
!	!	!	!	!	!LO:LB:g=original	!	!	!	!	!	!	!
8A\	.	8f\	.	.	4dd\	.	8g\L	8g\L	8F\	4bn\	4ddM\	.
!LO:SIC:v:o=8B-\J	!	!	!	!	!	!	!	!	!	!	!	!
8Bn	.	8g\J	8bn\	.	.	.	8g\J	8g\J	8G\J	.	.	.
!	!	!	!	!	!	!	!LO:LB:g=original	!LO:LB:g=original	!	!	!	!
=10	=10	=10	=10	=10	=10	=10	=10	=10	=10	=10	=10	=10
!LO:TX:a:t=P:problem=mixed beam	!	!	!	!	!	!	!	!	!	!	!	!
.	.	.	.	.	8qqdd/	.	.	.	.	.	.	.
8C/L	.	4g\	4cc\	.	4cc\	.	4c/	4g\	4C/	4cc\	4cc\	.
8B-\	.	.	.	.	.	.	.	.	.	.	.	.
8A\	.	4r	4r	.	4r	.	4r	4r	4r	4r	4r	.
8G\J	.	.	.	.	.	.	.	.	.	.	.	.
!	!	!LO:LB:g=original	!LO:LB:g=original	!	!	!	!	!	!	!	!LO:LB:g=original	!
=11:|!|:	=11:|!|:	=11:|!|:	=11:|!|:	=11:|!|:	=11:|!|:	=11:|!|:	=11:|!|:	=11:|!|:	=11:|!|:	=11:|!|:	=11:|!|:	=11:|!|:
*>B	*	*>B	*>B	*	*>B	*	*>B	*>B	*>B	*>B	*>B	*
!	!	!LO:TX:a:t=P:problem=brak znaków przy kluczu [przyjęto zgodnie z początkiem utworu]	!	!	!	!	!	!	!	!	!	!
!	!LO:DY:a:t=pia	!LO:TX:a:t=5	!LO:TX:a:t=4	!	!LO:TX:a:t=4	!	!LO:TX:a:i:t=Solo	!LO:TX:b:i:t=Solo:rj	!LO:TX:a:t=5	!LO:TX:a:t=5.	!LO:TX:a:t=5	!
8.F\L	p	0r	0r	.	0r	.	4a\	4cc\	0r	0r	0r	.
16F\Jk	.	.	.	.	.	.	.	.	.	.	.	.
8F\L	.	.	.	.	.	.	8a\L	8cc\L	.	.	.	.
8F\J	.	.	.	.	.	.	8b-\J	8dd\J	.	.	.	.
!LO:LB:g=original	!	!	!	!	!	!	!	!	!	!	!	!
=12	=12	=12	=12	=12	=12	=12	=12	=12	=12	=12	=12	=12
*2\right	*	*	*	*	*	*	*	*	*	*	*	*
*tremolo	*	*	*	*	*	*	*	*	*	*	*	*
8F\L	.	.	.	.	.	.	4.a\	4.cc\	.	.	.	.
8F\	.	.	.	.	.	.	.	.	.	.	.	.
8F\	.	.	.	.	.	.	.	.	.	.	.	.
8F\J	.	.	.	.	.	.	8g\	8b-\	.	.	.	.
=13	=13	=13	=13	=13	=13	=13	=13	=13	=13	=13	=13	=13
8F\L	.	.	.	.	.	.	8f\	(>8a\L	.	.	.	.
8F\	.	.	.	.	.	.	4a\	8cc\	.	.	.	.
8F\	.	.	.	.	.	.	.	8ff\)	.	.	.	.
8F\J	.	.	.	.	.	.	8f\	8a\J|	.	.	.	.
=14	=14	=14	=14	=14	=14	=14	=14	=14	=14	=14	=14	=14
!	!	!	!	!	!	!	!	!LO:SIC:v:o=16qqb-/	!	!	!	!
.	.	.	.	.	.	.	.	16qeen	.	.	.	.
8C/L	.	.	.	.	.	.	4c/	4g\	.	.	.	.
8FF/J	.	.	.	.	.	.	.	.	.	.	.	.
4CC/	.	.	.	.	.	.	4r	4r	.	.	.	.
=15	=15	=15	=15	=15	=15	=15	=15	=15	=15	=15	=15	=15
!LO:TX:a:t=1	!	!	!	!LO:DY:a	!	!LO:DY:a:t=pia	!LO:TX:a:t=1	!LO:TX:a:t=1	!	!	!	!
2r	.	2r	8f\L	p	(>8a\L	p	2r	2r	2r	2r	2r	.
.	.	.	8a\	.	8cc\	.	.	.	.	.	.	.
.	.	.	8cc\	.	8ff\	.	.	.	.	.	.	.
.	.	.	8ff\J	.	8aa\J)	.	.	.	.	.	.	.
!	!	!	!	!	!	!	!	!	!	!LO:LB:g=original	!	!
=16	=16	=16	=16	=16	=16	=16	=16	=16	=16	=16	=16	=16
*Xtremolo	*	*	*	*	*	*	*	*	*	*	*	*
!	!LO:DY:a:t=for	!	!	!	!	!LO:DY:a:t=for	!	!	!	!	!	!
8C/L	f	8e\L	8b-\L	.	8b-\L	f	8c/L	8g\L	8c\L	8b-\L	8ee\L	.
8C/J	.	8e\J	8g\J	.	8b-\J	.	8c/J	8g\J	8c\J	8b-\J	8ee\J	.
4C/	.	4e\	4g/	.	4b-\	.	4c/	4g\	4c\	4b-\	4ee\	.
=17	=17	=17	=17	=17	=17	=17	=17	=17	=17	=17	=17	=17
!LO:TX:a:t=1	!	!	!	!	!	!LO:DY:a:t=pia	!	!LO:TX:a:t=1	!	!LO:TX:a:t=1	!	!
2r	.	2r	8f\L	.	(>8a\L	p	2r	2r	2r	2r	2r	.
.	.	.	8a\	.	8cc\	.	.	.	.	.	.	.
.	.	.	8cc\	.	8ff\	.	.	.	.	.	.	.
.	.	.	8ff\J	.	8aa\J)	.	.	.	.	.	.	.
=18	=18	=18	=18	=18	=18	=18	=18	=18	=18	=18	=18	=18
!	!	!	!	!	!	!LO:DY:a:t=for	!	!	!	!	!	!
8C/L	.	8e\L	8g/L	.	8b-\L	f	8c/L	8g\L	8c\L	8b-\L	8ee\L	.
8C/J	.	8e\J	8g/J	.	8b-\J	.	8c/J	8g\J	8c\J	8b-\J	8ee\J	.
4C/	.	4e\	4g/	.	4b-\	.	4c/	4g\	4c\	4b-\	4ee\	.
!	!	!	!	!	!	!	!	!	!LO:LB:g=original	!	!	!
=19	=19	=19	=19	=19	=19	=19	=19	=19	=19	=19	=19	=19
!LO:TX:a:t=P:problem=mixed beam	!	!LO:TX:a:t=P:problem=mixed beam	!	!	!	!	!	!	!LO:TX:a:t=P:problem=mixed beam	!	!	!
8F\L	.	8f\L	8f/	.	16a\LL	.	8r	8r	8F\L	4a\	4ff\	.
.	.	.	.	.	16cc\	.	.	.	.	.	.	.
8AA/	.	8A/	4ff\	.	16ff\	.	8A/L	8f\L	8AA/	.	.	.
.	.	.	.	.	16aa\JJ	.	.	.	.	.	.	.
.	.	.	.	.	8qqaa/	.	.	.	.	.	8qqaa/	.
8BB-/	.	8B-/	.	.	8gg\L	.	8c/	8a\	8BB-/	8dd\L	8gg\L	.
8C/J	.	8c/J	8ee\	.	16ff\L	.	8c/J	8g\J	8C/J	8b-\J	16ff\L	.
.	.	.	.	.	16ee\JJ	.	.	.	.	.	16ee\JJ	.
!	!	!	!	!	!	!	!LO:LB:g=original	!LO:LB:g=original	!	!	!	!
=20	=20	=20	=20	=20	=20	=20	=20	=20	=20	=20	=20	=20
.	.	.	.	.	8qqee	.	.	.	.	.	16qqee/	.
4FF/	.	4c\	4ff\	.	4ff\	.	4A/	4f\	4FF/	4a/	4ff\	.
4r	.	4r	4r	.	4r	.	4r	4r	4r	4r	4r	.
=21:|!|:	=21:|!|:	=21:|!|:	=21:|!|:	=21:|!|:	=21:|!|:	=21:|!|:	=21:|!|:	=21:|!|:	=21:|!|:	=21:|!|:	=21:|!|:	=21:|!|:
*>C	*	*>C	*>C	*	*>C	*	*>C	*>C	*>C	*>C	*>C	*
*k[b-e-]	*	*k[b-e-]	*	*	*	*	*	*	*k[b-e-]	*k[b-e-]	*k[b-e-]	*
!LO:TX:a:t=P:problem=kolejność znaków E- BB-	!	!LO:TX:a:t=P:problem=kolejność znaków e- B-	!	!LO:DY:a	!	!LO:DY:a	!	!	!	!LO:TX:a:t=P:problem=kolejność znaków ee- b-	!LO:TX:a:t=P:problem=kolejność znaków e- B-	!
!	!	!	!	!	!	!LO:DY:a:t=pia	!	!	!	!	!	!
!	!	!	!	!	!	!	!	!	!LO:TX:a:t=P:problem=kolejność znaków E- BB-	!	!	!
4B-\	.	4b-\	8.dd\L	p	8.ff\L	p	0r	0r	4B-\	8.dd\L	8.ff\L	.
.	.	.	16dd\K	.	16ff\K	.	.	.	.	16dd\K	16ff\K	.
4r	.	4r	8.dd\	.	8.ff\	.	.	.	4r	8.dd\	8.ff\	.
.	.	.	16dd\Jk	.	16ff\Jk	.	.	.	.	16dd\Jk	16ff\Jk	.
=22	=22	=22	=22	=22	=22	=22	=22	=22	=22	=22	=22	=22
8r	.	8r	8.dd\L	.	8.ff\L	.	.	.	8r	8.dd\L	8.ff\L	.
8B-\	.	8b-\L	.	.	.	.	.	.	8B-\L	.	.	.
.	.	.	16cc\Jk	.	16ee-X\Jk	.	.	.	.	16cc\Jk	16ee-X\Jk	.
!	!	!	!	!	!LO:LB:g=original	!	!	!	!	!	!	!
.	.	.	.	.	8qqee-/	.	.	.	.	8qqcc/	16qqee-/	.
8F\L	.	8f\	4b-\	.	4dd\	.	.	.	8F\	4b-\	4dd\	.
8D\J	.	8d\J	.	.	.	.	.	.	8D\J	.	.	.
!	!	!	!LO:LB:g=original	!	!	!	!	!	!	!	!	!
=23	=23	=23	=23	=23	=23	=23	=23	=23	=23	=23	=23	=23
4BB-/	.	4B-/	8.dd\L	.	8.ff\L	.	.	.	4BB-/	8.dd\L	8.ff\L	.
.	.	.	16dd\K	.	16ff\K	.	.	.	.	16dd\K	16ff\K	.
4r	.	4r	8.dd\	.	8.ff\	.	.	.	4r	8.dd\	8.ff\	.
.	.	.	16dd\Jk	.	16ff\Jk	.	.	.	.	16dd\Jk	16ff\Jk	.
!	!	!	!	!	!	!	!	!	!	!	!LO:LB:g=original	!
=24	=24	=24	=24	=24	=24	=24	=24	=24	=24	=24	=24	=24
8r	.	8r	8.dd\L	.	8.ff\L	.	.	.	8r	8.dd\L	8.ff\L	.
8B-\L	.	8b-\L	.	.	.	.	.	.	8B-\L	.	.	.
.	.	.	16cc\Jk	.	16ee-X\Jk	.	.	.	.	16cc\Jk	16ee-X\Jk	.
.	.	.	.	.	.	.	.	.	.	16qqcc/	16qqee-/	.
8F\	.	8f\	4b-\	.	8dd\L	.	.	.	8F\	4b-\	4dd\	.
8D\J	.	8d\J	.	.	8ff\J	.	.	.	8D\J	.	.	.
=25	=25	=25	=25	=25	=25	=25	=25	=25	=25	=25	=25	=25
!LO:TX:a:t=P:problem=mixed beam	!	!	!	!	!	!	!	!	!LO:TX:a:t=P:problem=mixed beam	!	!	!
8F\L	.	8B-\L	8b-/	.	8dd\L	.	0r	0r	8F\L	4b-/	8dd\L	.
8E-\	.	8e-\	4a/	.	16cc\L	.	.	.	8E-\	.	16cc\L	.
.	.	.	.	.	16b-\JJ	.	.	.	.	.	16b-\JJ	.
.	.	.	.	.	8qqb-/	.	.	.	.	.	16qqcc/	.
8F\	.	8f\	.	.	4cc\	.	.	.	8F\	4a/	4cc\	.
8FF/J	.	8f\J	8g/	.	.	.	.	.	8FF/J	.	.	.
!LO:LB:g=original	!	!LO:LB:g=original	!	!	!	!	!	!	!	!	!	!
=26	=26	=26	=26	=26	=26	=26	=26	=26	=26	=26	=26	=26
!	!	!LO:TX:a:t=P:problem=brak znaków przy kluczu	!	!	!	!	!	!	!	!	!	!
.	.	.	.	.	8qqcc/	.	.	.	.	.	.	.
8BB-/L	.	4f\	4b-/	.	4b-\	.	.	.	4BB-/	4b-/	4b-\	.
8FF/J	.	.	.	.	.	.	.	.	.	.	.	.
!	!	!	!	!	!	!	!	!	!	!	!	!LO:DY:b:t=for&colon;
4BB-/	.	4r	4r	.	4r	.	.	.	4r	4r	4r	f
!	!	!	!	!	!	!	!	!	!	!LO:LB:g=original	!	!
=27	=27	=27	=27	=27	=27	=27	=27	=27	=27	=27	=27	=27
!LO:TX:a:t=1	!	!LO:TX:a:t=1	!	!LO:DY:a	!	!LO:DY:a:t=for	!	!	!LO:TX:a:t=1	!LO:TX:a:t=P:problem=przy kluczu B-	!	!
2r	.	2r	8.c/L	f	8.c/L	f	.	.	2r	8.c/L	8.c/L	.
.	.	.	16c/Jk	.	16c/Jk	.	.	.	.	16c/Jk	16c/K	.
.	.	.	8.c/L	.	8.c/L	.	.	.	.	8.c/L	8.c/	.
.	.	.	16c/Jk	.	16c/Jk	.	.	.	.	16c/Jk	16c/Jk	.
=28	=28	=28	=28	=28	=28	=28	=28	=28	=28	=28	=28	=28
8.C/L	.	8.c\L	8c/L	.	8c/L	.	.	.	8.C/L	8c/L	8c/L	.
.	.	.	16d/L	.	16d/L	.	.	.	.	16d/L	16d/L	.
16C/Jk	.	16c\K	16en/JJ	.	16e/JJ	.	.	.	16C/Jk	16en/JJ	16en/JJ	.
8.C/L	.	8.c\	4f/	.	4f/	.	.	.	8.C/L	4f/	4f/	.
16C/Jk	.	16c\Jk	.	.	.	.	.	.	16C/Jk	.	.	.
=29	=29	=29	=29	=29	=29	=29	=29	=29	=29	=29	=29	=29
!	!	!	!LO:TX:a:t=P:problem=powtórzenie tt. 27-28 oznaczone znakami repetycji	!LO:DY:a	!	!	!	!	!	!	!	!
8C/L	.	8c\L	8.c/Lyy	f	8.c/L	.	0r	0r	8C\L	8.c/L	8.c/L	.
16D/L	.	16d\L	.	.	.	.	.	.	16D\L	.	.	.
16En/JJ	.	16en\JJ	16c/Jkyy	.	16c/K	.	.	.	16En\JJ	16c/Jk	16c/K	.
4F\	.	4f\	8.c/Lyy	.	8.c/	.	.	.	4F\	8.c/L	8.c/	.
.	.	.	16c/Jkyy	.	16c/Jk	.	.	.	.	16c/Jk	16c/Jk	.
=30	=30	=30	=30	=30	=30	=30	=30	=30	=30	=30	=30	=30
8.C/L	.	8.c\L	8c/Lyy	.	8c/L	.	.	.	8.C\L	8c/L	8c/L	.
.	.	.	16d/Lyy	.	16d/L	.	.	.	.	16d/L	16d/L	.
16C/Jk	.	16c\K	16en/JJyy	.	16e/JJ	.	.	.	16C\Jk	16eny/JJ	16en/JJ	.
8.C/L	.	8.c\	4f/yy	.	4f/	.	.	.	8.C\L	4f/	4f/	.
16C/Jk	.	16c\Jk	.	.	.	.	.	.	16C\Jk	.	.	.
!	!	!	!	!	!LO:LB:g=original	!	!	!	!	!	!	!
!	!	!	!	!	!	!	!	!	!LO:LB:g=original	!	!	!
=31	=31	=31	=31	=31	=31	=31	=31	=31	=31	=31	=31	=31
8C/L	.	8c\L	8en/L	.	8e/L	.	.	.	8C\L	8eny/L	8en/L	.
16D/L	.	16d\L	16f/L	.	16f/L	.	.	.	16D\L	16f/L	16f/L	.
16En/JJ	.	16en\JJ	16g/JJ	.	16g/JJ	.	.	.	16En\JJ	16g/JJ	16g/JJ	.
4F\	.	4f\	4a/	.	4a/	.	.	.	4F\	4a/	4a/	.
!	!	!	!	!	!	!	!	!	!	!	!LO:LB:g=original	!
=32	=32	=32	=32	=32	=32	=32	=32	=32	=32	=32	=32	=32
!	!	!	!	!	!	!	!	!	!	!	!LO:TX:a:t=P:problem=brak znaków przy kluczu	!
8En\L	.	8en\L	8g/L	.	8g/L	.	.	.	8En\L	8g/L	8g/L	.
16F\L	.	16f\L	16a/L	.	16a/L	.	.	.	16F\L	16a/L	16a/L	.
16G\JJ	.	16g\JJ	16b-/JJ	.	16b-/JJ	.	.	.	16G\JJ	16b-/JJ	16b-/JJ	.
!	!	!	!LO:LB:g=original	!	!	!	!	!	!	!	!	!
8A\L	.	8a\L	8cc\L	.	8cc\L	.	.	.	8A\L	8cc\L	8cc/L	.
8B-\J	.	8g\J	8b-\J	.	8b-\J	.	.	.	8B-\J	8b-\J	8b-/J	.
=33	=33	=33	=33	=33	=33	=33	=33	=33	=33	=33	=33	=33
!LO:TX:a:t=P:problem=mixed beam	!	!LO:TX:a:t=P:problem=mixed beam	!	!	!	!	!	!	!LO:TX:a:t=P:problem=mixed beam	!	!	!
8c\L	.	8f\L	8a/	.	8a/L	.	1r	1r	8c\L	8a/	8a/L	.
8B-\	.	8a\	4f/	.	16g/L	.	.	.	8B-\	4g/	16g/L	.
.	.	.	.	.	16f/JJ	.	.	.	.	.	16f/JJ	.
8c\	.	8b-\	.	.	8g/L	.	.	.	8c\	.	4f/	.
8C/J	.	8cc\J	8en/	.	8e/J	.	.	.	8C/J	8en/	.	.
=34	=34	=34	=34	=34	=34	=34	=34	=34	=34	=34	=34	=34
.	.	.	.	.	.	.	.	.	.	16qqeny/	.	.
4F\	.	4c\	4f/	.	4f/	.	.	.	4F\	4f/	4f/	.
8G\L	.	4r	4r	.	4r	.	.	.	4r	4r	4r	.
8A\J	.	.	.	.	.	.	.	.	.	.	.	.
=35:|!|:	=35:|!|:	=35:|!|:	=35:|!|:	=35:|!|:	=35:|!|:	=35:|!|:	=35:|!|:	=35:|!|:	=35:|!|:	=35:|!|:	=35:|!|:	=35:|!|:
*>D	*	*>D	*>D	*	*>D	*	*>D	*>D	*>D	*>D	*>D	*
*	*	*	*	*	*	*	*	*	*2\right	*	*	*
!	!	!	!	!LO:DY:a	!LO:SIC:v:o=8.a/L	!LO:DY:a:t=pia	!	!	!	!LO:TX:a:t=4	!	!
2B-\	.	4d\	8.f/L	p	8.a-	p	0r	0r	2B-\	0r	0r	.
!	!	!	!	!	!LO:SIC:v:o=16a/K	!	!	!	!	!	!	!
.	.	.	16f/K	.	16a-	.	.	.	.	.	.	.
!	!	!	!	!	!LO:SIC:v:o=8.a/	!	!	!	!	!	!	!
.	.	4d\	8.f/	.	8.a-	.	.	.	.	.	.	.
!	!	!	!	!	!LO:SIC:v:o=16a/Jk	!	!	!	!	!	!	!
.	.	.	16f/Jk	.	16a-	.	.	.	.	.	.	.
=36	=36	=36	=36	=36	=36	=36	=36	=36	=36	=36	=36	=36
!LO:TX:a:t=P:problem=mixed beam	!	!	!	!	!	!	!	!	!	!	!	!
8B-\L	.	8e-\L	8.g/L	.	8.b-/L	.	.	.	2B-\	.	.	.
8BB-/J	.	8d\J	.	.	.	.	.	.	.	.	.	.
.	.	.	16f/Jk	.	16a-X/Jk	.	.	.	.	.	.	.
.	.	.	.	.	8qqa-/	.	.	.	.	.	.	.
4E-\	.	4e-\	4e-X/	.	4g/	.	.	.	.	.	.	.
!LO:LB:g=original	!	!LO:LB:g=original	!	!	!	!	!	!	!	!	!	!
=37	=37	=37	=37	=37	=37	=37	=37	=37	=37	=37	=37	=37
2c\	.	4en\	8.g/L	.	8.b-\L	.	.	.	2c\	.	.	.
.	.	.	16g/K	.	16b-\K	.	.	.	.	.	.	.
.	.	4e\	8.g/	.	8.b-\	.	.	.	.	.	.	.
.	.	.	16g/Jk	.	16b-\Jk	.	.	.	.	.	.	.
=38	=38	=38	=38	=38	=38	=38	=38	=38	=38	=38	=38	=38
!LO:TX:a:t=P:problem=mixed beam	!	!	!	!	!	!	!	!	!	!	!	!
8c\L	.	8f\L	8.a/L	.	(>8.cc\L	.	.	.	2c\	.	.	.
!	!	!LO:SIC:v:o=8e-\J	!	!	!	!	!	!	!	!	!	!
8C/J	.	8en	.	.	.	.	.	.	.	.	.	.
.	.	.	16g/Jk	.	16b-\Jk)	.	.	.	.	.	.	.
4F\	.	4f\	4f/	.	4a/	.	.	.	.	.	.	.
!	!	!	!	!	!	!	!	!	!	!LO:LB:g=original	!	!
=39	=39	=39	=39	=39	=39	=39	=39	=39	=39	=39	=39	=39
!	!	!	!	!	!LO:SIC:v:o=8.ee\L	!	!	!	!	!	!	!
8F\L	.	8a\L	8.cc\L	.	8.ee-	.	0r	0r	2f\	4.cc\	4.ee-X\	.
8F\	.	8a\	.	.	.	.	.	.	.	.	.	.
!	!	!	!	!	!LO:SIC:v:o=16ee\Jk	!	!	!	!	!	!	!
.	.	.	16cc\K	.	8.ee-	.	.	.	.	.	.	.
!	!	!	!	!	!LO:SIC:v:o=8.ee\L	!	!	!	!	!	!	!
8F\	.	8a\	8.cc\	.	16ee-	.	.	.	.	.	.	.
8En\J	.	8b-\J	.	.	.	.	.	.	.	8b-\	8dd\	.
.	.	.	16b-\Jk	.	16dd\Jk	.	.	.	.	.	.	.
=40	=40	=40	=40	=40	=40	=40	=40	=40	=40	=40	=40	=40
.	.	.	.	.	8qqdd/	.	.	.	.	16qqb-/	8qqcc/	.
8F\L	.	4a\	4a/	.	4cc\	.	.	.	4f\	4a/	4cc\	.
8C\J	.	.	.	.	.	.	.	.	.	.	.	.
4FF/	.	4r	4r	.	4r	.	.	.	4r	4r	4r	.
!	!	!	!LO:LB:g=original	!	!LO:LB:g=original	!	!	!	!	!	!	!
=41	=41	=41	=41	=41	=41	=41	=41	=41	=41	=41	=41	=41
!LO:TX:a:t=1	!	!LO:TX:a:t=1	!	!LO:DY:a	!	!	!	!	!LO:TX:a:t=1	!	!	!LO:DY:b:rj
2r	.	2r	8.f/L	f	8.f/L	.	.	.	2r	8.f/L	8.f/L	f
.	.	.	16f/K	.	16f/K	.	.	.	.	16f/K	16f/K	.
.	.	.	8.f/	.	8.f/	.	.	.	.	8.f/	8.f/	.
.	.	.	16f/Jk	.	16f/Jk	.	.	.	.	16f/Jk	16f/Jk	.
=42	=42	=42	=42	=42	=42	=42	=42	=42	=42	=42	=42	=42
8.F\L	.	8.f\L	8f/L	.	8f/L	.	.	.	8.F\L	8f/L	8f/L	.
.	.	.	16g/L	.	16g/L	.	.	.	.	16g/L	16g/L	.
16F\K	.	16f\K	16a/JJ	.	16a/JJ	.	.	.	16F\Jk	16a/JJ	16a/JJ	.
8.F\	.	8.f\	4b-\	.	4b-/	.	.	.	8.F\L	4b-/	4b-/	.
16F\Jk	.	16f\Jk	.	.	.	.	.	.	16F\Jk	.	.	.
=43	=43	=43	=43	=43	=43	=43	=43	=43	=43	=43	=43	=43
8F\L	.	8f\L	8.f/L	.	8.f/L	.	0r	0r	8F\L	8.f/L	8.f/L	.
16G\L	.	16g\L	.	.	.	.	.	.	16G\L	.	.	.
16A\JJ	.	16a\JJ	16f/K	.	16f/K	.	.	.	16A\JJ	16f/K	16f/K	.
4B-\	.	4b-\	8.f/	.	8.f/	.	.	.	4B-\	8.f/	8.f/	.
.	.	.	16f/Jk	.	16f/Jk	.	.	.	.	16f/Jk	16f/Jk	.
!	!	!	!	!	!	!	!	!	!LO:LB:g=original	!	!LO:LB:g=original	!
=44	=44	=44	=44	=44	=44	=44	=44	=44	=44	=44	=44	=44
!	!	!	!	!	!	!	!	!	!LO:TX:a:t=P:problem=powtórzenie tt. 42-43 oznaczone znakami repetycji	!	!	!
8.F\L	.	8.f\L	8f/L	.	8f/L	.	.	.	8.F\Lyy	8f/L	8f/L	.
.	.	.	16g/L	.	16g/L	.	.	.	.	16g/L	16g/L	.
16F\K	.	16f\K	16a/JJ	.	16a/JJ	.	.	.	16F\Jkyy	16a/JJ	16a/JJ	.
8.F\	.	8.f\	4b-\	.	4b-/	.	.	.	8.F\Lyy	4b-/	4b-/	.
16F\Jk	.	16f\Jk	.	.	.	.	.	.	16F\Jkyy	.	.	.
=45	=45	=45	=45	=45	=45	=45	=45	=45	=45	=45	=45	=45
8F\L	.	8f\L	8a\L	.	8a\L	.	.	.	8F\Lyy	8a\L	8a\L	.
16G\L	.	16g\L	16b-\L	.	16b-\L	.	.	.	16G\Lyy	16b-\L	16b-\L	.
16A\JJ	.	16a\JJ	16cc\JJ	.	16cc\JJ	.	.	.	16A\JJyy	16cc\JJ	16cc\JJ	.
4B-\	.	4b-\	4dd\	.	4dd\	.	.	.	4B-\yy	4dd\	4dd\	.
!	!	!	!	!	!	!	!	!	!LO:LB:g=original	!	!	!
=46	=46	=46	=46	=46	=46	=46	=46	=46	=46	=46	=46	=46
8A\L	.	8a\L	8cc\L	.	8cc\L	.	.	.	8A\L	8cc\L	8cc\L	.
16B-\L	.	16b-\L	16dd\L	.	16dd\L	.	.	.	16B-\L	16dd\L	16dd\L	.
!	!	!	!LO:SIC:v:o=16ee\JJ	!	!LO:SIC:v:o=16ee\JJ	!	!	!	!	!	!	!
16c\JJ	.	16cc\JJ	16ee-	.	16ee-	.	.	.	16c\JJ	16ee-\JJ	16ee-X\JJ	.
8d\L	.	8dd\L	8ff\L	.	8ff\L	.	.	.	8d\L	8ff\L	8ff\L	.
!	!	!	!LO:SIC:v:o=8ee\J	!	!LO:SIC:v:o=8ee\J	!	!	!	!	!	!	!
8c\J	.	8cc\J	8ee-	.	8ee-	.	.	.	8c\J	8ee-\J	8ee-\J	.
=47	=47	=47	=47	=47	=47	=47	=47	=47	=47	=47	=47	=47
!LO:TX:a:t=P:problem=mixed beam	!	!	!	!	!	!	!	!	!	!	!	!
8B-\L	.	8b-\L	8dd\	.	8dd\L	.	1r	1r	8B-\L	8dd\	8dd\L	.
8D/	.	8d\	4b-\	.	16cc\L	.	.	.	8D\	4b-\	(>16cc\L	.
.	.	.	.	.	16b-\JJ	.	.	.	.	.	16b-\JJ)	.
8E-/	.	8e-\	.	.	8cc\L	.	.	.	8E-\	.	4cc\	.
8F/J	.	8f\J	8a/	.	8a\J	.	.	.	8F\J	8a\	.	.
!	!	!LO:LB:g=original	!	!	!	!	!	!	!	!	!	!
=48	=48	=48	=48	=48	=48	=48	=48	=48	=48	=48	=48	=48
.	.	.	8qqa/	.	.	.	.	.	.	8qqa/	.	.
4BB-/	.	4f\	4b-/	.	4b-\	.	.	.	4BB-/	4b-\	4b-\	.
4r	.	4r	4r	.	4r	.	.	.	4r	4r	4r	.
!LO:LB:g=original	!	!	!	!	!	!	!	!	!	!	!	!
*	*	*	*	*	*	*	*	*	*	*kcancel	*	*
=49:|!|:	=49:|!|:	=49:|!|:	=49:|!|:	=49:|!|:	=49:|!|:	=49:|!|:	=49:|!|:	=49:|!|:	=49:|!|:	=49:|!|:	=49:|!|:	=49:|!|:
*>E	*	*>E	*>E	*	*>E	*	*>E	*>E	*>E	*>E	*>E	*
*	*	*	*	*	*	*	*	*	*k[b-]	*k[b-]	*	*
*	*	*	*^	*	*^	*	*	*	*	*	*	*
!	!	!	!	!	!LO:DY:a:t=for	!	!	!LO:DY:a	!	!	!LO:TX:a:t=P:problem=przy kluczu błędnie F- BB- [powinien być kasownik En]	!	!	!
8F\L	.	8f\L	8ff/L	8a\L	f	8ff/L	8a\L	f	8A/L	8f\L	8F\L	8ff\L	8ff\L	.
8A\	.	8a\	8ff/J	8a\J	.	8ff/J	8a\J	.	8A/J	8f\J	8A\	8ff\J	8ff\J	.
8G\	.	8g\	4ff/	4a\	.	4ff/	4a\	.	4A/	4f\	8G\	4ff\	4ff\	.
8F\J	.	8f\J	.	.	.	.	.	.	.	.	8F\J	.	.	.
!	!	!	!LO:LB:g=original	!LO:LB:g=original	!	!LO:LB:g=original	!LO:LB:g=original	!	!	!	!	!	!	!
=50	=50	=50	=50	=50	=50	=50	=50	=50	=50	=50	=50	=50	=50	=50
!LO:SIC:v:o=8E-\L	!	!LO:SIC:v:o=8e-\L	!	!	!	!LO:TX:a:t=P:problem=brak znaków przy kluczu [przyjęto zgodnie z początkiem utworu]	!	!	!	!	!	!	!	!
8En	.	8en	4.gg/	4.cc\	.	4.gg/	4.cc\	.	4.c/	4.g\	8E\L	4.ee\	4.gg\	.
8C\	.	8c\	.	.	.	.	.	.	.	.	8C\	.	.	.
8D\	.	8d\	.	.	.	.	.	.	.	.	8D\	.	.	.
8E-\J	.	8e-\J	8bb-\	8ryy	.	8bb-\	8ryy	.	8g\	8b-\	8E\J	8gg\	8bb-\	.
*	*	*	*v	*v	*	*	*	*	*	*	*	*	*	*
*	*	*	*	*	*v	*v	*	*	*	*	*	*	*
=51	=51	=51	=51	=51	=51	=51	=51	=51	=51	=51	=51	=51
!LO:TX:a:t=P:problem=mixed beam	!	!LO:TX:a:t=P:problem=mixed beam	!	!	!	!	!	!	!LO:TX:a:t=P:problem=mixed beam	!	!	!
8F\L	.	8f\L	8aa\	.	8aa\L	.	8f\L	8a\L	8F\L	8ff\	8aa\L	.
8AA/	.	8A/	4ff\	.	16gg\L	.	8c\J	8f\J	8AA/	4cc\	16gg\L	.
.	.	.	.	.	16ff\JJ	.	.	.	.	.	16ff\JJ	.
.	.	.	.	.	8qqaa/	.	.	.	.	.	.	.
8BB-/	.	8B-/	.	.	4gg\	.	4c/	4g\	8BB-/	.	4gg\	.
8C/J	.	8c/J	8ee\	.	.	.	.	.	8C/J	8b-\	.	.
=52	=52	=52	=52	=52	=52	=52	=52	=52	=52	=52	=52	=52
.	.	.	.	.	.	.	.	.	.	16qqb-/	.	.
4FF/	.	4c\	4ff\	.	4ff\	.	4A/	4f\	4FF/	4a/	4ff\	.
4r	.	4r	4r	.	4r	.	4r	4r	4r	4r	4r	.
=53	=53	=53	=53	=53	=53	=53	=53	=53	=53	=53	=53	=53
!LO:TX:a:t=1	!	!LO:TX:a:t=1	!	!	!	!	!LO:TX:a:t=1	!	!	!	!LO:TX:a:t=1	!
2r	.	2r	(>8cc\L	.	8ee\L	.	2r	2r	2r	2r	2r	.
.	.	.	8ee\	.	8gg\	.	.	.	.	.	.	.
.	.	.	8gg\	.	8ccc\	.	.	.	.	.	.	.
.	.	.	8ccc\J)	.	8eee\J	.	.	.	.	.	.	.
!	!	!	!	!	!	!	!	!	!	!	!LO:LB:g=original	!
=54	=54	=54	=54	=54	=54	=54	=54	=54	=54	=54	=54	=54
8G\L	.	8bn\L	8dd\L	.	8ff\L	.	8g\L	8g\L	8G\L	8dd\L	8ff\L	.
8G\J	.	8b\J	8dd\J	.	8ff\J	.	8g\J	8g\J	8G\J	8dd\J	8ff\J	.
4G\	.	4b\	4dd\	.	4ff\	.	4g\	4g\	4G\	4dd\	4ff\	.
!	!	!	!	!	!	!	!LO:LB:g=original	!	!	!	!	!
=55	=55	=55	=55	=55	=55	=55	=55	=55	=55	=55	=55	=55
!LO:TX:a:t=1	!	!LO:TX:a:t=1	!	!	!	!	!	!LO:TX:a:t=1	!LO:TX:a:t=1	!	!LO:TX:a:t=1	!
2r	.	2r	(>8cc\L	.	8ee\L	.	2r	2r	2r	2r	2r	.
.	.	.	8ee\	.	8gg\	.	.	.	.	.	.	.
.	.	.	8gg\	.	8ccc\	.	.	.	.	.	.	.
.	.	.	8ccc\J)	.	8eee\J	.	.	.	.	.	.	.
=56	=56	=56	=56	=56	=56	=56	=56	=56	=56	=56	=56	=56
8G\L	.	8bn\L	8dd\L	.	8ff\L	.	8g\L	8g\L	8G\L	8dd\L	8ff\L	.
8G\J	.	8b\J	8dd\J	.	8ff\J	.	8g\J	8g\J	8G\J	8dd\J	8ff\J	.
4G\	.	4b\	4dd\	.	4ff\	.	4g\	4g\	4G\	4dd\	4ff\	.
!	!	!	!	!	!	!	!	!LO:LB:g=original	!	!	!	!
=57	=57	=57	=57	=57	=57	=57	=57	=57	=57	=57	=57	=57
!	!	!	!	!	!	!	!	!	!	!	!LO:SIC:v:o=8ee-\L	!
8c\L	.	8cc\L	8cc\	.	8ee\L	.	8r	8r	8c\L	8cc\	8een	.
!	!	!LO:SIC:v:o=8e-\	!	!	!	!	!	!	!	!	!	!
8G\	.	8en	4cc\	.	16dd\L	.	16g\LL	16g\LL	8E\	4cc\	16dd\L	.
.	.	.	.	.	16cc\JJ	.	16g\JJ	16g\JJ	.	.	16cc\JJ	.
.	.	.	.	.	8qqcc/	.	.	.	.	.	.	.
8A\	.	8f\	.	.	4dd\	.	8g\L	8g\L	8F\	.	4ddm\	.
!LO:SIC:v:o=8B-\J	!	!	!	!	!	!	!	!	!	!	!	!
8Bn	.	8g\J	8bn\	.	.	.	8g\J	8g\J	8G\J	8bn\	.	.
=58	=58	=58	=58	=58	=58	=58	=58	=58	=58	=58	=58	=58
!LO:TX:a:t=P:problem=mixed beam	!	!	!	!	!	!	!	!	!	!	!	!
8BB-/L	.	4g\	4cc\	.	4cc\	.	4c/	4g\	4C/	4cc\	4cc\	.
8B-\	.	.	.	.	.	.	.	.	.	.	.	.
8A\	.	4r	4r	.	4r	.	4r	4r	4r	4r	4r	.
8G\J	.	.	.	.	.	.	.	.	.	.	.	.
!	!	!LO:LB:g=original	!	!	!	!	!	!	!LO:LB:g=original	!LO:LB:g=original	!	!
=59:|!	=59:|!	=59:|!	=59:|!	=59:|!	=59:|!	=59:|!	=59:|!	=59:|!	=59:|!	=59:|!	=59:|!	=59:|!
*>F	*	*>F	*>F	*	*>F	*	*>F	*>F	*>F	*>F	*>F	*
*tremolo	*	*	*	*	*	*	*	*	*	*	*	*
!	!LO:DY:a:rj	!LO:TX:a:t=5	!LO:TX:a:t=4	!	!LO:TX:a:t=4	!	!LO:TX:a:i:t=Solo	!LO:TX:a:i:t=Solo:rj	!LO:TX:a:t=5	!LO:TX:a:t=5	!LO:TX:a:t=5	!
8F\L	p	0r	0r	.	0r	.	4a\	4cc\	0r	0r	0r	.
8F\	.	.	.	.	.	.	.	.	.	.	.	.
8F\	.	.	.	.	.	.	8a\L	8cc\L	.	.	.	.
8F\J	.	.	.	.	.	.	8b-\J	8dd\J	.	.	.	.
=60	=60	=60	=60	=60	=60	=60	=60	=60	=60	=60	=60	=60
8F\L	.	.	.	.	.	.	4.a\	4.cc\	.	.	.	.
8F\	.	.	.	.	.	.	.	.	.	.	.	.
8F\	.	.	.	.	.	.	.	.	.	.	.	.
8F\J	.	.	.	.	.	.	8g\	8b-\	.	.	.	.
=61	=61	=61	=61	=61	=61	=61	=61	=61	=61	=61	=61	=61
8F\L	.	.	.	.	.	.	8f\	8a\L	.	.	.	.
8F\	.	.	.	.	.	.	4a\	8cc\	.	.	.	.
8F\	.	.	.	.	.	.	.	8ff\	.	.	.	.
8F\J	.	.	.	.	.	.	8f\	8a\J	.	.	.	.
=62	=62	=62	=62	=62	=62	=62	=62	=62	=62	=62	=62	=62
.	.	.	.	.	.	.	.	8qqa/	.	.	.	.
8C/L	.	.	.	.	.	.	4c/	4g\	.	.	.	.
8AA/J	.	.	.	.	.	.	.	.	.	.	.	.
4C/	.	.	.	.	.	.	4r	4r	.	.	.	.
!	!	!	!LO:LB:g=original	!	!	!	!	!	!	!	!	!
=63	=63	=63	=63	=63	=63	=63	=63	=63	=63	=63	=63	=63
!LO:TX:a:t=1	!	!	!	!LO:DY:a	!	!	!	!	!	!	!	!
2r	.	2r	(>8f\L	p	(>8a\L	.	2r	2r	2r	2r	2r	.
.	.	.	8a\	.	8cc\	.	.	.	.	.	.	.
.	.	.	8cc\	.	8ff\	.	.	.	.	.	.	.
.	.	.	8ff\J)	.	8aa\J)	.	.	.	.	.	.	.
!LO:LB:g=original	!	!	!	!	!LO:LB:g=original	!	!	!	!	!	!	!
=64	=64	=64	=64	=64	=64	=64	=64	=64	=64	=64	=64	=64
!LO:TX:a:t=P:problem=tt. 64-65 nieczytelne - defekt źródła	!	!LO:SIC:v:o=8e-\L	!	!LO:DY:a	!	!LO:DY:a:t=for	!	!	!	!	!LO:SIC:v:o=8ee-\L	!
2ryy	.	8en	8g/L	f	8b-\L	f	8c/L	8g\L	8c\L	8b-\L	8een	.
!	!	!LO:SIC:v:o=8e-\J	!	!	!	!	!	!	!	!	!LO:SIC:v:o=8ee-\J	!
.	.	8en	8g/J	.	8b-\J	.	8c/J	8g\J	8c\J	8b-\J	8een	.
!	!	!LO:SIC:v:o=4e-\	!	!	!	!	!	!	!	!	!LO:SIC:v:o=4ee-\	!
.	.	4en	4g/	.	4b-\	.	4c/	4g\	4c\	4b-\	4een	.
!	!	!	!	!	!	!	!LO:LB:g=original	!	!	!	!	!
=65	=65	=65	=65	=65	=65	=65	=65	=65	=65	=65	=65	=65
!LO:TX:a:t=1	!	!	!	!LO:DY:a:t=pia	!	!LO:DY:a:t=pia	!	!	!LO:TX:a:t=1	!LO:TX:a:t=1	!LO:TX:a:t=1	!
2ryy	.	2r	(>8f\L	p	(>8a\L	p	2r	2r	2r	2r	2r	.
.	.	.	8a\	.	8cc\	.	.	.	.	.	.	.
.	.	.	8cc\	.	8ff\	.	.	.	.	.	.	.
.	.	.	8ff\J)	.	8aa\J)	.	.	.	.	.	.	.
=66	=66	=66	=66	=66	=66	=66	=66	=66	=66	=66	=66	=66
*Xtremolo	*	*	*	*	*	*	*	*	*	*	*	*
!	!	!LO:SIC:v:o=8e-\L	!	!LO:DY:a	!	!LO:DY:a:t=for	!	!	!	!	!LO:SIC:v:o=8ee-\L	!
8C/L	.	8en	8g/L	f	8b-\L	f	8c/L	8g\L	8c\L	8b-\L	8een	.
!	!	!LO:SIC:v:o=8e-\J	!	!	!	!	!	!	!	!	!LO:SIC:v:o=8ee-\J	!
8C/J	.	8en	8g/J	.	8b-\J	.	8c/J	8g\J	8c\J	8b-\J	8een	.
!	!	!LO:SIC:v:o=4e-\	!	!	!	!	!	!	!	!	!LO:SIC:v:o=4ee-\	!
4C/	.	4en	4g/	.	4b-\	.	4c/	4g\	4c\	4b-\	4een	.
=67	=67	=67	=67	=67	=67	=67	=67	=67	=67	=67	=67	=67
!LO:TX:a:t=P:problem=mixed beam	!	!LO:TX:a:t=P:problem=mixed beam	!	!	!	!	!	!	!LO:TX:a:t=P:problem=mixed beam	!	!	!
8F\L	.	8f\L	8a\	.	16a\LL	.	8r	8r	8F\L	8g/	4ff\	.
.	.	.	.	.	16cc\	.	.	.	.	.	.	.
8AA/	.	8A/	4ff\	.	16ff\	.	8A/L	8f\L	8AA/	4a/	.	.
.	.	.	.	.	16aa\JJ	.	.	.	.	.	.	.
.	.	.	.	.	.	.	.	.	.	.	16qqaa	.
8BB-/	.	8B-/	.	.	8gg\L	.	8c/	8a\	8BB-/	.	8gg\L	.
8C/J	.	8c/J	8ee\	.	16ff\L	.	8c/J	8g\J	8C/J	8g/	16ff\L	.
!	!	!	!	!	!	!	!	!	!	!	!LO:SIC:v:o=16ee-\JJ	!
.	.	.	.	.	16ee\JJ	.	.	.	.	.	16een	.
!	!	!	!	!	!	!	!	!LO:LB:g=original	!	!	!	!
=68	=68	=68	=68	=68	=68	=68	=68	=68	=68	=68	=68	=68
.	.	.	.	.	8qqee/	.	.	.	.	.	.	.
4FF/	.	4c\	4ff\	.	4ff\	.	4A/	4f\	4FF/	4a/	4ff\	.
4r	.	4r	4r	.	4r	.	4r	4r	4r	4r	4r	.
=69	=69	=69	=69	=69	=69	=69	=69	=69	=69	=69	=69	=69
*tremolo	*	*	*	*	*	*	*	*	*	*	*	*
!	!LO:DY:a	!	!LO:TX:a:t=4	!	!	!	!LO:TX:a:i:t=Solo	!LO:TX:a:i:t=Solo:rj	!LO:TX:a:t=5	!LO:TX:a:t=5	!LO:TX:a:t=5	!
8F\L	p	0r	0r	.	0r	.	4a\	4cc\	0r	0r	0r	.
8F\	.	.	.	.	.	.	.	.	.	.	.	.
8F\	.	.	.	.	.	.	8a\L	8cc\L	.	.	.	.
8F\J	.	.	.	.	.	.	8b-\J	8dd\J	.	.	.	.
=70	=70	=70	=70	=70	=70	=70	=70	=70	=70	=70	=70	=70
8F\L	.	.	.	.	.	.	4.a\	4.cc\	.	.	.	.
8F\	.	.	.	.	.	.	.	.	.	.	.	.
8F\	.	.	.	.	.	.	.	.	.	.	.	.
8F\J	.	.	.	.	.	.	8g\	8b-\	.	.	.	.
=71	=71	=71	=71	=71	=71	=71	=71	=71	=71	=71	=71	=71
8F\L	.	.	.	.	.	.	8f\	8a\L	.	.	.	.
8F\	.	.	.	.	.	.	4a\	8cc\	.	.	.	.
8F\	.	.	.	.	.	.	.	8ff\	.	.	.	.
8F\J	.	.	.	.	.	.	8f\	8a\J	.	.	.	.
=72	=72	=72	=72	=72	=72	=72	=72	=72	=72	=72	=72	=72
.	.	.	.	.	.	.	.	8qqa/	.	.	.	.
8C/L	.	.	.	.	.	.	4c/	4g\	.	.	.	.
8AA/J	.	.	.	.	.	.	.	.	.	.	.	.
4C/	.	.	.	.	.	.	4r	4r	.	.	.	.
=73	=73	=73	=73	=73	=73	=73	=73	=73	=73	=73	=73	=73
!LO:TX:a:t=1	!	!	!	!	!	!LO:DY:a:t=pia	!	!	!	!	!	!
2r	.	2r	(>8f\L	.	8a\L	p	2r	2r	2r	2r	2r	.
.	.	.	8a\	.	8cc\	.	.	.	.	.	.	.
.	.	.	8cc\	.	8ff\	.	.	.	.	.	.	.
.	.	.	8ff\J)	.	8aa\J	.	.	.	.	.	.	.
!	!	!	!	!	!	!	!	!	!	!	!LO:LB:g=original	!
=74	=74	=74	=74	=74	=74	=74	=74	=74	=74	=74	=74	=74
*Xtremolo	*	*	*	*	*	*	*	*	*	*	*	*
!	!	!LO:SIC:v:o=8e-\L	!	!	!	!LO:DY:a	!	!	!	!	!LO:SIC:v:o=8ee-\L	!
8C/L	.	8en	8g/L	.	8b-\L	.	8c/L	8g\L	8c\L	8b-\L	8een	.
!	!	!LO:SIC:v:o=8e-\J	!	!	!	!	!	!	!	!	!LO:SIC:v:o=8ee-\J	!
8C/J	.	8en	8g/J	.	8b-\J	.	8c/J	8g\J	8c\J	8b-\J	8een	.
!	!	!LO:SIC:v:o=4e-\	!	!	!	!	!	!	!	!	!LO:SIC:v:o=4ee-\	!
4C/	.	4en	4g/	.	4b-\	.	4c/	4g\	4c\	4b-\	4een	.
!	!	!	!	!	!	!	!LO:LB:g=original	!	!	!	!	!
=75	=75	=75	=75	=75	=75	=75	=75	=75	=75	=75	=75	=75
!LO:TX:a:t=1	!	!	!	!	!	!LO:DY:a	!	!LO:TX:a:t=P:problem=brak tt. 75-76	!	!	!LO:TX:a:t=1	!
2r	.	2r	(>8f\L	.	8a\L	p	2r	2ryy	2r	2r	2r	.
.	.	.	8a\	.	8cc\	.	.	.	.	.	.	.
.	.	.	8cc\	.	8ff\	.	.	.	.	.	.	.
.	.	.	8ff\J)	.	8aa\J	.	.	.	.	.	.	.
!	!	!	!LO:LB:g=original	!	!	!	!	!	!	!	!	!
=76	=76	=76	=76	=76	=76	=76	=76	=76	=76	=76	=76	=76
!	!	!LO:SIC:v:o=8e-\L	!	!	!	!LO:DY:a:t=for	!	!	!	!	!LO:TSIC:v:s=8een	!
8C/L	.	8en	8g/L	.	8b-\L	f	8c/L	2ryy	8c\L	8b-/L	8ee-\L	.
!	!	!LO:SIC:v:o=8e-\J	!	!	!	!	!	!	!	!	!LO:SIC:v:o=8ee-\J	!
8C/J	.	8en	8g/J	.	8b-\J	.	8c/J	.	8c\J	8b-/J	8een	.
!	!	!LO:SIC:v:o=4e-\	!	!	!	!	!	!	!	!	!LO:SIC:v:o=4ee-\	!
4C/	.	4en	4g/	.	4b-\	.	4c/	.	4c\	4b-/	4een	.
=77	=77	=77	=77	=77	=77	=77	=77	=77	=77	=77	=77	=77
!LO:TX:a:t=P:problem=mixed beam	!	!LO:TX:a:t=P:problem=mixed beam	!	!	!	!	!	!	!LO:TX:a:t=P:problem=mixed beam	!	!	!
8F\L	.	8f\L	8a/	.	16a\LL	.	8r	8r	8F\L	8a/	4ff\	.
.	.	.	.	.	16cc\	.	.	.	.	.	.	.
8AA/	.	8A/	(>4ff\	.	16ff\	.	8A/L	8f\L	8AA/	4a/	.	.
.	.	.	.	.	16aa\JJ	.	.	.	.	.	.	.
8BB-/	.	8B-/	.	.	8gg\L	.	8c/	8a\	8BB-/	.	16aa\LL	.
.	.	.	.	.	.	.	.	.	.	.	16gg\	.
8C/J	.	8c/J	8ee\)	.	16ff\L	.	8c/J	8g\J	8C/J	8g/	16ff\	.
!	!	!	!	!	!	!	!	!	!	!	!LO:SIC:v:o=16ee-\JJ	!
.	.	.	.	.	16ee\JJ	.	.	.	.	.	16een	.
!	!	!	!	!	!LO:LB:g=original	!	!	!	!	!	!	!
=78	=78	=78	=78	=78	=78	=78	=78	=78	=78	=78	=78	=78
*tremolo	*	*tremolo	*	*	*	*	*	*	*	*	*	*
*	*	*2\right	*	*	*	*	*	*	*tremolo	*	*	*
!	!	!	!	!	!	!	!	!	!	!LO:TX:a:t=P:problem=mixed beam	!	!
8F\L	.	8f\L	8ff\L	.	8ff\L	.	8f\L	8f\L	8F\L	8a/L	8ff\L	.
8F\	.	8f\	8ff\J	.	8ff\J	.	8f\J	8f\J	8F\	8ff\J	8ff\J	.
8F\	.	8f\	4ff\	.	4ff\	.	4f\	4f\	8F\	4ff\	4ff\	.
8F\J	.	8f\J	.	.	.	.	.	.	8F\J	.	.	.
!	!	!	!	!	!	!	!	!	!	!LO:LB:g=original	!	!
=79	=79	=79	=79	=79	=79	=79	=79	=79	=79	=79	=79	=79
!	!	!	!	!	!	!	!	!	!	!	!LO:TX:a:t=P:problem=brak taktu nr 79	!
8F\L	.	8f\L	8cc\L	.	8cc\L	.	8c/L	8c/L	8F\L	8cc\L	2ryy	.
8F\	.	8f\	8cc\J	.	8cc\J	.	8c/J	8c/J	8F\	8cc\J	.	.
8F\	.	8f\	4cc\	.	4cc\	.	4c/	4c/	8F\	4cc\	.	.
8F\J	.	8f\J	.	.	.	.	.	.	8F\J	.	.	.
=80	=80	=80	=80	=80	=80	=80	=80	=80	=80	=80	=80	=80
8F\L	.	8f\L	8a/L	.	8a/L	.	8A/L	8A/L	8F\L	8a/L	8a/L	.
8F\	.	8f\	8a/J	.	8a/J	.	8A/J	8A/J	8F\	8a/J	8a/J	.
8F\	.	8f\	4a/	.	4a/	.	4A/	4A/	8F\	4a/	4a/	.
8F\J	.	8f\J	.	.	.	.	.	.	8F\J	.	.	.
!LO:LB:g=original	!	!LO:LB:g=original	!	!	!	!	!	!LO:LB:g=original	!	!	!	!
=81	=81	=81	=81	=81	=81	=81	=81	=81	=81	=81	=81	=81
8F\L	.	8f\L	8f/L	.	8f/L	.	8F/L	8F/L	8F\L	8f/L	8f/L	.
8F\	.	8f\	8f/J	.	8f/J	.	8F/J	8F/J	8F\	8f/J	8f/J	.
8F\	.	8f\	4f/	.	4f/	.	4F/	4F/	8F\	4f/	4f/	.
8F\J	.	8f\J	.	.	.	.	.	.	8F\J	.	.	.
*	*	*	*	*	*	*	*	*	*Xtremolo	*	*	*
*	*	*Xtremolo	*	*	*	*	*	*	*	*	*	*
*Xtremolo	*	*	*	*	*	*	*	*	*	*	*	*
!	!	!	!	!	!	!	!	!	!LO:LB:g=original	!	!	!
=82	=82	=82	=82	=82	=82	=82	=82	=82	=82	=82	=82	=82
!	!	!	!	!LO:DY:a	!	!LO:DY:a:t=pia	!	!	!LO:TX:a:t=1	!LO:TX:a:t=1	!LO:TX:a:t=1	!
2r	.	2r	(<8c/L	p	8c/L	p	4C/	4c/	2r	2r	2r	.
.	.	.	8e/	.	8e/	.	.	.	.	.	.	.
.	.	.	8g/	.	8g/	.	4r	4r	.	.	.	.
.	.	.	8cc/J)	.	8cc/J	.	.	.	.	.	.	.
=83	=83	=83	=83	=83	=83	=83	=83	=83	=83	=83	=83	=83
*	*	*	*^	*	*	*	*	*	*	*	*	*
!	!	!	!LO:TX:a:t=P:problem=mixed beam	!	!	!	!	!	!	!	!	!	!
!	!	!	!LO:SIC:v:o=8g/L	!	!	!LO:TX:a:t=P:problem=mixed beam	!LO:DY:a:t=for	!	!	!	!	!	!
8F\L	.	8A/L	8a	4reyy	.	8a/L	f	8A/L	8f\L	8F\L	8a/L	8a\L	.
!	!	!	!	!	!LO:DY:a	!	!	!	!	!	!	!	!
8F\J	.	8A/J	8ff\J	.	f	8ff\J	.	8A/J	8f\J	8F\J	8a/J	8ff\J	.
4F\	.	4A/	4ff/	4a\	.	4ff\	.	4A/	4f\	4F\	4a/	4ff\	.
*	*	*	*v	*v	*	*	*	*	*	*	*	*	*
=84	=84	=84	=84	=84	=84	=84	=84	=84	=84	=84	=84	=84
!	!	!	!	!LO:DY:a	!	!LO:DY:a:t=pia	!	!LO:TX:a:t=1	!	!LO:TX:a:t=1	!LO:TX:a:t=1	!
2r	.	2r	(<8c/L	p	8c/L	p	2r	2r	2r	2r	2r	.
.	.	.	8e/	.	8e/	.	.	.	.	.	.	.
.	.	.	8g/	.	8g/	.	.	.	.	.	.	.
.	.	.	8cc/J)	.	8cc/J	.	.	.	.	.	.	.
=85	=85	=85	=85	=85	=85	=85	=85	=85	=85	=85	=85	=85
!	!	!	!LO:TX:a:t=P:problem=mixed beam	!LO:DY:a	!LO:TX:a:t=P:problem=mixed beam	!LO:DY:a:t=for	!	!	!	!	!	!
8F\L	.	8A/L	8a/L	f	8a/L	f	8A/L	8f\L	8F\L	8a/L	8a\L	.
8F\J	.	8A/J	8ff\J	.	8ff\J	.	8A/J	8f\J	8F\J	8a/J	8ff\J	.
4F\	.	4A/	4ff 4a/	.	4ff\	.	4A/	4f\	4F\	4a/	4ff\	.
!	!	!	!LO:LB:g=original	!	!	!	!LO:LB:g=original	!	!	!	!LO:LB:g=original	!
=86	=86	=86	=86	=86	=86	=86	=86	=86	=86	=86	=86	=86
8r	.	8r	(>16dd\LL	.	(>16dd\LL	.	4F/	4f\	8r	4b-\	4dd\	.
.	.	.	16ff\	.	16ff\	.	.	.	.	.	.	.
8B-\L	.	8b-\L	16gg\	.	16gg\	.	.	.	8B-\L|	.	.	.
.	.	.	16aa\JJ)	.	16aa\JJ)	.	.	.	.	.	.	.
8G\	.	8g\	8bb-\L	.	8bb-\L	.	4r	4r	8G\	8dd\L	8bb-\L	.
!	!	!LO:SIC:v:o=8e-\J	!	!	!	!	!	!	!	!	!	!
8E-\J	.	8en	8dd\J	.	8dd\J	.	.	.	8E\J	8b-\J	8dd\J	.
=87	=87	=87	=87	=87	=87	=87	=87	=87	=87	=87	=87	=87
8r	.	8r	8cc\L	.	8cc\L	.	4A/	4f\	8r	4a/	8cc\L	.
8A\L	.	8a\L	8ff\J	.	8ff\J	.	.	.	8A\L	.	8ff\J	.
8F\	.	8f\	4aa\	.	4aa\	.	4r	4r	8F\	4cc\	4aa\	.
8D\J	.	8d\J	.	.	.	.	.	.	8D\J	.	.	.
=88	=88	=88	=88	=88	=88	=88	=88	=88	=88	=88	=88	=88
8r	.	8r	(>16b-\LL	.	(>16b-\LL	.	4c/	4g\	8r	4g/	4b-\	.
.	.	.	16dd\	.	16dd\	.	.	.	.	.	.	.
8G\L	.	8g\L	16ee\	.	16ee\	.	.	.	8G\L	.	.	.
.	.	.	16ff\JJ)	.	16ff\JJ)	.	.	.	.	.	.	.
!	!	!LO:SIC:v:o=8e-\	!	!	!	!	!	!	!	!	!	!
!	!	!	!	!	!LO:LB:g=original	!	!	!	!	!	!	!
8E-\	.	8en	8gg\L	.	8gg\L	.	4r	4r	8E\	8b-/L	8gg\L	.
8C\J	.	8c\J	8b-\J	.	8b-\J	.	.	.	8C\J	8g/J	8b-\J	.
=89	=89	=89	=89	=89	=89	=89	=89	=89	=89	=89	=89	=89
!LO:TX:a:t=P:problem=nadmiarowy takt w cor I	!	!LO:TX:a:t=P:problem=nadmiarowy takt w cor I	!LO:TX:a:t=P:problem=nadmiarowy takt w cor I	!	!LO:TX:a:t=P:problem=nadmiarowy takt w cor I	!	!LO:TX:a:t=P:problem=nadmiarowy takt w cor I	!	!LO:TX:a:t=P:problem=nadmiarowy takt w cor I	!LO:TX:a:t=P:problem=nadmiarowy takt w cor I	!LO:TX:a:t=P:problem=nadmiarowy takt w cor I	!
2ryy	.	2ryy	2ryy	.	2ryy	.	2ryy	4g\	2ryy	2ryy	2ryy	.
.	.	.	.	.	.	.	.	4r	.	.	.	.
=90	=90	=90	=90	=90	=90	=90	=90	=90	=90	=90	=90	=90
8F/L	.	8f\L	8a\L	.	8a\L	.	4A/	4f\	8F/L	4f/	8a\L	.
8C/	.	8c\J	8cc\J	.	8cc\J	.	.	.	8C/	.	8cc\J	.
8AA/	.	8A/L	4ff\	.	4ff\	.	4r	4r	8AA/	4a/	4ff\	.
8FF/J	.	8F/J	.	.	.	.	.	.	8FF/J	.	.	.
=91	=91	=91	=91	=91	=91	=91	=91	=91	=91	=91	=91	=91
!	!	!	!	!	!	!	!	!LO:TX:a:t=4.	!	!	!	!
8r	.	8r	(>16dd\LL	.	(>16dd\LL	.	0r	0r	8r	4b-\	4dd\	.
.	.	.	16ff\	.	16ff\	.	.	.	.	.	.	.
8B-\L	.	8b-\L	16gg\	.	16gg\	.	.	.	8B-\L	.	.	.
.	.	.	16aa\JJ)	.	16aa\JJ)	.	.	.	.	.	.	.
8G\	.	8g\	8bb-\L	.	8bb-\L	.	.	.	8G\	8dd\L	8bb-\L	.
!	!	!LO:SIC:v:o=8e-\J	!	!	!	!	!	!	!	!	!	!
8E-\J	.	8en	8dd\J	.	8dd\J	.	.	.	8E\J	8b-\J	8dd\J	.
!	!	!LO:LB:g=original	!	!	!	!	!	!	!	!LO:LB:g=original	!	!
=92	=92	=92	=92	=92	=92	=92	=92	=92	=92	=92	=92	=92
8r	.	8r	8cc\L	.	8cc\L	.	.	.	8r	4a/	8cc\L	.
8A\L	.	8a\L	8ff\J	.	8ff\J	.	.	.	8A\L	.	8ff\J	.
8F\	.	8f\	4aa\	.	4aa\	.	.	.	8F\	4cc/	4aa\	.
8D\J	.	8d\J	.	.	.	.	.	.	8D\J	.	.	.
=93	=93	=93	=93	=93	=93	=93	=93	=93	=93	=93	=93	=93
8r	.	8r	16b-\LL	.	(>16b-\LL	.	.	.	8r	4g/	4b-\	.
.	.	.	16dd\	.	16dd\	.	.	.	.	.	.	.
8G\L	.	8g\L	16ee\	.	16ee\	.	.	.	8G\L	.	.	.
.	.	.	16ff\JJ	.	16ff\JJ)	.	.	.	.	.	.	.
!	!	!LO:SIC:v:o=8e-\	!	!	!	!	!	!	!	!	!	!
8E-\	.	8en	8gg\L	.	8gg\L	.	.	.	8E\	8b-/L	8gg\L	.
8C\J	.	8c\J	8b-\J	.	8b-\J	.	.	.	8C\J	8g/J	8b-\J	.
!LO:LB:g=original	!	!	!	!	!	!	!	!	!LO:LB:g=original	!	!	!
=94	=94	=94	=94	=94	=94	=94	=94	=94	=94	=94	=94	=94
8F/L	.	8f\L	8a\L	.	8a\L	.	.	.	8F/L	4f/	8a\L	.
8C/	.	8c\J	8cc\J	.	8cc\J	.	.	.	8C/	.	8cc\J	.
8AA/	.	8A/L	4ff\	.	4ff\	.	.	.	8AA/	4a/	4ff\	.
8FF/J	.	8F/J	.	.	.	.	.	.	8FF/J	.	.	.
!	!	!	!LO:LB:g=original	!	!	!	!	!	!	!	!	!
=95	=95	=95	=95	=95	=95	=95	=95	=95	=95	=95	=95	=95
!	!	!	!	!	!	!	!LO:TX:a:i:t=Solo	!	!	!	!LO:SIC:v:o=4ee-\	!
4C/	.	4c/	4ee 4b- 4g 4c/	.	4ee 4b- 4g 4c/	.	8c\L	8g\L	4C/	4g\	4een	.
.	.	.	.	.	.	.	8g\J	8b-\J	.	.	.	.
!	!	!	!	!	!	!	!	!LO:TX:a:i:t=Solo	!	!	!	!
4r	.	4r	4r	.	4r	.	4g\	4b-\	4r	4r	4r	.
=96	=96	=96	=96	=96	=96	=96	=96	=96	=96	=96	=96	=96
4F\	.	4c/	4ff 4cc 4f/	.	4ff 4cc 4f/	.	8f\L	8a\L	4F\	4a/	4ff\	.
.	.	.	.	.	.	.	8A\J	8f\J	.	.	.	.
4r	.	4r	4r	.	4r	.	4A/	4f\	4r	4r	4r	.
=97	=97	=97	=97	=97	=97	=97	=97	=97	=97	=97	=97	=97
!	!	!	!	!	!	!	!	!	!	!	!LO:SIC:v:o=4ee-\	!
4C/	.	4c/	4ee 4b- 4g 4c/	.	4ee 4b- 4g 4c/	.	8c\L	8g\L	4C/	4g/	4een	.
.	.	.	.	.	.	.	8g\J	8b-\J	.	.	.	.
4r	.	4r	4r	.	4r	.	4g\	4b-\	4r	4r	4r	.
!	!	!	!	!	!	!	!	!LO:LB:g=original	!	!	!LO:LB:g=original	!
=98	=98	=98	=98	=98	=98	=98	=98	=98	=98	=98	=98	=98
4F\	.	4c/	4ff 4a 4f/	.	4ff 4cc 4f/	.	8f\L	8a\L	4F\	4a/	4ff\	.
.	.	.	.	.	.	.	8A\J	8f\J	.	.	.	.
4r	.	4r	4r	.	4r	.	4A/	4f\	4r	4r	4r	.
!	!	!	!	!	!	!	!LO:LB:g=original	!	!	!	!	!
=99	=99	=99	=99	=99	=99	=99	=99	=99	=99	=99	=99	=99
!	!	!	!	!	!	!	!	!	!	!	!LO:SIC:v:o=4ee-\	!
4C/	.	4c/	4ee 4b- 4g 4c/	.	4ee 4b- 4g 4c/	.	8c\L	8g\L	4C/	4g/	4een	.
.	.	.	.	.	.	.	8g\J	8b-\J	.	.	.	.
4r	.	4r	4r	.	4r	.	4g\	4b-\	4r	4r	4r	.
=100	=100	=100	=100	=100	=100	=100	=100	=100	=100	=100	=100	=100
4F\	.	4c/	4ff 4a 4f/	.	4ff 4cc 4f/	.	4f\	4a\	4F\	4a/	4ff\	.
!LO:TX:b:i:t=Finiſ	!	!LO:TX:b:i:t=Pro Choro Brdovienſi	!	!	!	!	!	!LO:TX:b:i:t=Finis	!LO:TX:b:i:t=Pro Choro Brdovie \nnſi	!	!	!
!LO:TX:b:i:t=Pro Choro Brdovienſi	!	!LO:TX:b:i:t=Finis	!LO:TX:b:i:t=Finiſ	!	!	!	!LO:TX:b:i:t=Pro Choro Brdovienſi	!LO:TX:b:i:t=Pro Choro \nBrdovienſi	!LO:TX:b:i:t=Finiſ	!LO:TX:b:i:t=Pro Choro Brdovienſi	!LO:TX:b:i:t=Pro Choro Brdovienſi	!
4r	.	4r	4r	.	4r	.	4r	4r	4r	4r	4r	.
==	==	==	==	==	==	==	==	==	==	==	==	==
*-	*-	*-	*-	*-	*-	*-	*-	*-	*-	*-	*-	*-
!!!system-decoration: (g1,g2,g3,s9)
!!!RDF**kern: | = vertical stroke
!!!RDF**kern: > = above
!!!RDF**kern: < = below
!!!ENC: Andrzej Kubiczek
!!!END: 2020-07-18
!!!EED: Antoni Szymański
!!!EEV: 2022-02-26
